build/img/sprites/sfera_logo_black.svg

<svg width="160" height="55" viewBox="0 0 160 55" fill="none" xmlns="http://www.w3.org/2000/svg">
<g clip-path="url(#clip0_526_5484)">
<mask id="mask0_526_5484" style="mask-type:luminance" maskUnits="userSpaceOnUse" x="0" y="0" width="160" height="55">
<path d="M160 0H0V55H160V0Z" fill="white"/>
</mask>
<g mask="url(#mask0_526_5484)">
<path fill-rule="evenodd" clip-rule="evenodd" d="M26.9681 0H27.766C28.1649 1.27136 28.5904 2.5335 29.0426 3.78643C30.5221 4.05794 31.9736 4.47437 33.3777 5.03015C34.2897 4.15568 35.1674 3.24362 36.0106 2.29397L36.117 2.26633C37.7723 3.20935 39.4213 4.16747 41.0638 5.1407L41.117 5.25126C40.8422 6.57789 40.5851 7.90452 40.3458 9.23115C46.0489 13.9728 49.01 20.1637 49.2287 27.804C49.6234 35.3813 47.283 41.867 42.2075 47.2613C39.1025 50.3913 35.4451 52.8689 31.4362 54.5578C31.367 51.9476 31.3138 49.3404 31.2766 46.7362C33.3775 45.6655 35.3428 44.3287 37.1277 42.7563C41.0433 38.9927 42.9759 34.3218 42.9255 28.7437C42.7266 22 39.9784 16.7211 34.6809 12.907C29.8415 9.70835 24.6642 8.95295 19.1489 10.6407C13.2309 12.7928 9.25037 16.9477 7.20745 23.1055C6.66617 24.9417 6.38841 26.8509 6.38298 28.7714C6.45069 33.6817 6.50388 38.5921 6.54255 43.5025C4.41277 43.5279 2.28511 43.5648 0.159574 43.6131C0.0911346 41.1168 0.0379433 38.6293 0 36.1507V31.3417C0.0851064 29.232 0.164894 27.1131 0.239362 24.9849C0.892346 21.1659 2.34505 17.5428 4.49468 14.3719C5.91468 12.2791 7.60622 10.4004 9.52128 8.78894C9.18846 7.71857 8.91319 6.62979 8.69681 5.52764C10.3241 4.4936 11.9642 3.4802 13.617 2.48744C14.5167 3.3 15.4298 4.09229 16.3564 4.86432C17.8503 4.3173 19.391 3.91936 20.9575 3.67588C20.9873 3.66315 21.0145 3.64438 21.0373 3.62066C21.0601 3.59693 21.0782 3.56873 21.0904 3.53769C21.3819 2.39899 21.6568 1.25661 21.9149 0.110553C23.6071 0.0737016 25.2915 0.0368509 26.9681 0Z" fill="#4887D0"/>
<path opacity="0.99" fill-rule="evenodd" clip-rule="evenodd" d="M92.553 8.84424H96.3296V10.6684C98.2312 10.7288 100.099 11.2093 101.808 12.0779C104.271 13.5191 105.495 15.721 105.479 18.6834C105.43 22.2804 103.781 24.685 100.532 25.897C99.1738 26.3655 97.7594 26.6352 96.3296 26.6985V28.6885H92.553V26.6432C90.5722 26.6214 88.6232 26.1199 86.8615 25.1784C84.4988 23.7228 83.3286 21.5578 83.3509 18.6834C83.353 15.2968 84.8599 12.966 87.8722 11.691C89.3562 11.1135 90.9174 10.7779 92.4998 10.696C92.5525 10.0804 92.5701 9.46206 92.553 8.84424ZM92.4466 14.0402C92.553 17.1169 92.5887 20.2124 92.553 23.3266C91.1823 23.2422 89.8589 22.7743 88.7232 21.9724C87.5105 20.7887 87.0759 19.3423 87.42 17.6332C87.7333 16.126 88.5935 15.1218 89.9998 14.6206C90.794 14.3403 91.6142 14.1459 92.4466 14.0402ZM96.3296 14.0402C97.4791 14.1358 98.5993 14.4644 99.6275 15.0076C100.912 15.8614 101.532 17.0867 101.489 18.6834C101.505 20.5953 100.671 21.9311 98.9892 22.691C98.1387 23.041 97.2419 23.2553 96.3296 23.3266V14.0402Z" fill="#1D2A3B"/>
<path opacity="0.99" fill-rule="evenodd" clip-rule="evenodd" d="M74.4678 9.28622C76.8816 9.11155 79.08 9.72882 81.0635 11.138C81.5837 11.5405 82.0492 12.0147 82.4465 12.5475C81.5784 13.404 80.7008 14.2515 79.8135 15.0902C78.1965 13.2157 76.2018 12.5616 73.8295 13.1279C71.6555 13.7843 70.3524 15.2675 69.9199 17.5777C69.5694 19.7058 70.1103 21.5392 71.5422 23.0777C73.238 24.4839 75.1353 24.8708 77.2337 24.2385C78.23 23.8572 79.1178 23.2202 79.8135 22.3867C80.7156 23.1926 81.5933 24.031 82.4465 24.9018C80.8784 26.7853 78.8928 27.8539 76.4891 28.1078C73.4539 28.4812 70.7768 27.652 68.4571 25.6204C66.322 23.4237 65.4087 20.7613 65.7178 17.633C66.3258 13.3951 68.6215 10.7142 72.6061 9.59024C73.221 9.45575 73.8428 9.35426 74.4678 9.28622Z" fill="#1D2A3B"/>
<path opacity="0.99" fill-rule="evenodd" clip-rule="evenodd" d="M108.458 9.61816H121.755V13.0453H112.553V16.9146H120.692V20.2865H112.553V24.4322H122.075V27.8594H108.458V9.61816Z" fill="#1D2A3B"/>
<path opacity="0.99" fill-rule="evenodd" clip-rule="evenodd" d="M125.319 9.61821C128.209 9.60898 131.099 9.61821 133.99 9.64585C135.752 9.7527 137.312 10.3792 138.67 11.5252C140.235 13.1791 140.828 15.1598 140.452 17.4675C140.042 19.6442 138.863 21.1827 136.915 22.083C135.984 22.4861 134.996 22.7288 133.99 22.8016C132.465 22.8293 130.94 22.8385 129.415 22.8293V27.8594H125.319V9.61821ZM129.415 13.1006C130.745 13.0914 132.075 13.1006 133.404 13.1283C135.654 13.4013 136.62 14.7003 136.303 17.0252C136.091 17.9465 135.568 18.6006 134.734 18.9876C134.307 19.1585 133.86 19.27 133.404 19.3192C132.075 19.3468 130.745 19.3561 129.415 19.3468V13.1006Z" fill="#1D2A3B"/>
<path opacity="0.99" fill-rule="evenodd" clip-rule="evenodd" d="M160 27.6936V27.8594C158.563 27.8778 157.127 27.8594 155.692 27.8042C155.174 26.5394 154.677 25.2681 154.202 23.9901C151.49 23.9809 148.777 23.9901 146.064 24.0177L144.521 27.8318C143.12 27.8778 141.72 27.8687 140.319 27.8042C142.924 21.747 145.512 15.685 148.085 9.61823C149.463 9.59982 150.837 9.61823 152.208 9.67351C154.793 15.692 157.391 21.6987 160 27.6936ZM150.107 13.8745C151.033 16.1431 151.954 18.4186 152.873 20.7011C151.046 20.738 149.22 20.738 147.394 20.7011C148.306 18.4282 149.21 16.1526 150.107 13.8745Z" fill="#1D2A3B"/>
<path opacity="0.99" fill-rule="evenodd" clip-rule="evenodd" d="M25.106 14.1506C25.6449 14.1105 26.1862 14.1761 26.7017 14.344C28.9556 16.3362 31.2251 18.3077 33.5102 20.2586C33.8574 20.5551 34.0774 20.9824 34.1219 21.447C34.2585 21.9887 34.2767 22.5554 34.1751 23.1053C34.1153 23.3031 34.0255 23.4897 33.9092 23.6581C30.5581 27.9696 27.1893 32.2628 23.8028 36.5375L21.4889 34.5752C21.4714 34.568 21.4554 34.5573 21.4419 34.5437C21.4284 34.53 21.4177 34.5137 21.4102 34.4957C21.4028 34.4778 21.3989 34.4584 21.3987 34.4389C21.3985 34.4193 21.4021 34.3998 21.4092 34.3817C24.4216 30.6436 27.4535 26.9216 30.5049 23.2159C30.6226 22.9038 30.5606 22.6366 30.3187 22.4144L25.6379 18.3239C25.1492 18.094 24.7503 18.2138 24.4411 18.6832L15.957 29.8214C15.9509 29.83 15.9428 29.837 15.9336 29.8417C15.9243 29.8466 15.9142 29.849 15.9038 29.849C15.8935 29.849 15.8834 29.8466 15.8741 29.8417C15.8649 29.837 15.8568 29.83 15.8506 29.8214L13.457 27.7762L23.8028 14.5928C24.2028 14.3528 24.6467 14.2022 25.106 14.1506Z" fill="#4887D0"/>
<path fill-rule="evenodd" clip-rule="evenodd" d="M25.3721 21.3368C25.4268 21.3286 25.4826 21.3383 25.5317 21.3645C26.2607 22.03 27.0054 22.6749 27.7657 23.2992C27.7832 23.3063 27.7992 23.3171 27.8127 23.3307C27.8262 23.3443 27.837 23.3606 27.8444 23.3786C27.8519 23.3966 27.8557 23.4159 27.856 23.4355C27.8561 23.4551 27.8526 23.4745 27.8455 23.4926L18.7497 34.6585C18.6373 34.9382 18.6817 35.1869 18.8827 35.4047L23.6168 39.5504C24.1054 39.7804 24.5044 39.6606 24.8136 39.1911L33.2444 28.0806C33.2523 28.0669 33.263 28.0551 33.2758 28.0461C33.2885 28.0372 33.3029 28.0311 33.3181 28.0285C33.3332 28.0259 33.3488 28.0267 33.3636 28.0309C33.3785 28.0351 33.3922 28.0426 33.404 28.0529C34.2008 28.7162 34.981 29.398 35.7444 30.0981C32.3104 34.5519 28.8352 38.974 25.3189 43.3645C24.4456 43.7614 23.4644 43.8202 22.5529 43.5303C20.1703 41.4785 17.8033 39.4056 15.4519 37.3117C15.2276 36.8744 15.0887 36.3953 15.043 35.9021C14.9973 35.4088 15.046 34.9111 15.1859 34.4373C18.5817 30.069 21.9771 25.7022 25.3721 21.3368Z" fill="#791F39"/>
<path opacity="0.93" fill-rule="evenodd" clip-rule="evenodd" d="M115 35.7084H115.585C115.697 36.3253 116.06 36.6201 116.676 36.5928C117.271 36.6179 117.635 36.3323 117.766 35.7361C117.96 35.7086 118.156 35.6994 118.351 35.7084C118.315 36.4535 117.943 36.905 117.234 37.0627C116.79 37.111 116.343 37.0924 115.904 37.0074C115.306 36.7996 115.005 36.3666 115 35.7084Z" fill="#1D2A3B"/>
<path opacity="0.94" fill-rule="evenodd" clip-rule="evenodd" d="M65.6914 37.5878C65.976 37.5697 66.2622 37.5882 66.5425 37.6431C67.3398 39.3014 68.1643 40.9412 69.0159 42.5627C69.8356 40.9135 70.6691 39.2737 71.5159 37.6431C71.7861 37.5712 72.0701 37.5712 72.3403 37.6431C71.2217 39.7734 70.1132 41.9107 69.0159 44.0551C68.3637 45.1717 67.4685 45.4757 66.3297 44.9672C66.3808 44.7403 66.4707 44.5249 66.5957 44.3315C67.2318 44.63 67.7728 44.501 68.218 43.9446C68.3265 43.7467 68.4419 43.5532 68.5637 43.3642C67.5834 41.4464 66.626 39.521 65.6914 37.5878Z" fill="#1D2A3B"/>
<path opacity="0.94" fill-rule="evenodd" clip-rule="evenodd" d="M73.0317 37.5879H73.8296C73.8057 38.6205 73.8323 39.6536 73.9094 40.6834C74.2945 41.479 74.9237 41.8475 75.7977 41.7889C76.5147 41.773 77.2211 41.6037 77.8721 41.2914C77.9253 40.0576 77.9429 38.8232 77.9253 37.5879H78.7232V45.1055H77.9253V42.0653C76.8466 42.5242 75.6594 42.6303 74.5211 42.3693C73.7152 42.1036 73.2275 41.5416 73.0583 40.6834C73.0317 39.6515 73.0227 38.6197 73.0317 37.5879Z" fill="#1D2A3B"/>
<path opacity="0.97" fill-rule="evenodd" clip-rule="evenodd" d="M81.064 37.5879H86.064V38.3618H81.915V40.9045H85.5852V41.6783H81.915V44.3869H86.2235V45.1055H81.064V37.5879Z" fill="#1D2A3B"/>
<path opacity="0.94" fill-rule="evenodd" clip-rule="evenodd" d="M87.8193 37.5879H93.1385V38.3065H88.6172V40.6834C89.4683 40.6741 90.3193 40.6834 91.1704 40.711C92.9587 40.7446 93.73 41.675 93.4842 43.5025C93.2816 44.2288 92.8294 44.6986 92.1278 44.912C91.8321 44.9959 91.5294 45.0514 91.2236 45.0778C90.089 45.1055 88.9539 45.1147 87.8193 45.1055V37.5879ZM88.6172 41.402C89.539 41.3927 90.4614 41.402 91.3832 41.4296C92.2481 41.5085 92.7092 41.9967 92.7661 42.8944C92.68 43.7302 92.2369 44.2185 91.4364 44.3592C90.497 44.3869 89.5571 44.3961 88.6172 44.3869V41.402Z" fill="#1D2A3B"/>
<path opacity="0.93" fill-rule="evenodd" clip-rule="evenodd" d="M95.2661 37.5879H96.064V40.9045H100.479V37.5879H101.277V45.1055H100.479V41.6783H96.064V45.1055H95.2661V37.5879Z" fill="#1D2A3B"/>
<path opacity="0.94" fill-rule="evenodd" clip-rule="evenodd" d="M103.67 37.5879H104.468V40.2412C105.319 40.2319 106.17 40.2412 107.021 40.2688C108.724 40.4026 109.477 41.3515 109.282 43.1155C109.173 43.9613 108.738 44.5417 107.979 44.8567C107.652 44.9741 107.313 45.0483 106.968 45.0778C105.869 45.1055 104.77 45.1147 103.67 45.1055V37.5879ZM104.468 40.9597C105.319 40.9505 106.17 40.9597 107.021 40.9874C108.243 41.2129 108.713 41.9591 108.431 43.2261C108.225 43.8824 107.791 44.2601 107.128 44.3592C106.241 44.3869 105.355 44.3961 104.468 44.3869V40.9597Z" fill="#1D2A3B"/>
<path opacity="0.93" fill-rule="evenodd" clip-rule="evenodd" d="M110.479 37.5879H111.276V45.1055H110.479V37.5879Z" fill="#1D2A3B"/>
<path opacity="0.94" fill-rule="evenodd" clip-rule="evenodd" d="M113.67 37.588H114.468C114.459 39.6148 114.468 41.6416 114.495 43.6684C115.973 41.6353 117.471 39.6177 118.99 37.6156C119.237 37.5879 119.486 37.5786 119.734 37.588V45.1056H118.936C118.945 43.0788 118.937 41.052 118.91 39.0252C117.408 41.0233 115.918 43.0316 114.442 45.0503C114.188 45.1039 113.929 45.1225 113.67 45.1056V37.588Z" fill="#1D2A3B"/>
<path opacity="0.96" fill-rule="evenodd" clip-rule="evenodd" d="M124.734 37.5879H125.532V44.3869H129.84V37.5879H130.638V44.3869H131.755V46.819H131.01V45.1055H124.734V37.5879Z" fill="#1D2A3B"/>
<path opacity="0.97" fill-rule="evenodd" clip-rule="evenodd" d="M133.191 37.5879H138.191V38.3618H134.042V40.9045H137.713V41.6783H134.042V44.3869H138.351V45.1055H133.191V37.5879Z" fill="#1D2A3B"/>
<path opacity="0.95" fill-rule="evenodd" clip-rule="evenodd" d="M139.947 37.5879H140.745V40.9045H145.213V37.5879H146.011V45.1055H145.213V41.6783H140.745V45.1055H139.947V37.5879Z" fill="#1D2A3B"/>
<path opacity="0.93" fill-rule="evenodd" clip-rule="evenodd" d="M147.234 37.5879H153.085V38.3618H150.585V45.1055H149.787V38.3618H147.234V37.5879Z" fill="#1D2A3B"/>
<path opacity="0.95" fill-rule="evenodd" clip-rule="evenodd" d="M160 39.6332V40.7387C159.675 41.8955 158.93 42.5495 157.766 42.701C156.897 42.7286 156.029 42.7379 155.16 42.7286V45.1055H154.362V37.5879C155.39 37.5787 156.419 37.5879 157.447 37.6156C158.036 37.5712 158.62 37.7517 159.09 38.1232C159.56 38.4946 159.884 39.0315 160 39.6332ZM155.16 38.3618C155.993 38.3526 156.827 38.3618 157.66 38.3894C158.808 38.629 159.313 39.3568 159.176 40.5729C158.93 41.4705 158.354 41.9404 157.447 41.9824C156.685 42.01 155.922 42.0193 155.16 42.01V38.3618Z" fill="#1D2A3B"/>
<path opacity="0.99" fill-rule="evenodd" clip-rule="evenodd" d="M27.7661 46.7637H28.4576C28.4753 49.4004 28.5108 52.0352 28.564 54.6682H25.2661C25.2608 52.0518 25.2431 49.4353 25.2129 46.8189C26.0732 46.8374 26.9242 46.8189 27.7661 46.7637Z" fill="#4887D0"/>
<path opacity="0.98" fill-rule="evenodd" clip-rule="evenodd" d="M19.415 46.8745H22.6597C22.6767 49.4909 22.6945 52.1074 22.7129 54.7238C21.6303 54.7094 20.5487 54.7278 19.4682 54.779C19.4423 52.1446 19.4246 49.5097 19.415 46.8745Z" fill="#4887D0"/>
<path opacity="0.98" fill-rule="evenodd" clip-rule="evenodd" d="M13.457 46.9297H16.7017C16.7194 49.5461 16.7372 52.1625 16.7549 54.7789C15.6734 54.7918 14.5918 54.8103 13.5102 54.8342C13.4858 52.1994 13.468 49.5645 13.457 46.9297Z" fill="#4887D0"/>
<path opacity="0.99" fill-rule="evenodd" clip-rule="evenodd" d="M0.531977 54.9999H0.212828C0.188715 52.3651 0.153254 49.7303 0.106445 47.0954C3.72347 47.0652 7.34049 47.0284 10.9575 46.9849C11.0064 49.6013 11.0419 52.2177 11.0639 54.8341C7.54474 54.8828 4.0341 54.938 0.531977 54.9999Z" fill="#4887D0"/>
</g>
</g>
<defs>
<clipPath id="clip0_526_5484">
<rect width="160" height="55" fill="white"/>
</clipPath>
</defs>
</svg>

<svg width="160" height="55" viewBox="0 0 160 55" fill="none" xmlns="http://www.w3.org/2000/svg"><g clip-path="url(#clip0_526_5484)"><mask id="mask0_526_5484" style="mask-type:luminance" maskUnits="userSpaceOnUse" x="0" y="0" width="160" height="55"><path d="M160 0H0v55h160V0z" fill="#fff"/></mask><g mask="url(#mask0_526_5484)" fill-rule="evenodd" clip-rule="evenodd"><path d="M26.968 0h.798a94.386 94.386 0 001.277 3.786c1.48.272 2.93.688 4.335 1.244a47.277 47.277 0 002.633-2.736l.106-.028c1.655.943 3.304 1.901 4.947 2.875l.053.11a157.19 157.19 0 00-.771 3.98c5.703 4.742 8.664 10.933 8.883 18.573.394 7.577-1.946 14.063-7.021 19.457a33.505 33.505 0 01-10.772 7.297c-.069-2.61-.122-5.218-.16-7.822a28.28 28.28 0 005.852-3.98c3.915-3.763 5.848-8.434 5.797-14.012-.198-6.744-2.947-12.023-8.244-15.837-4.84-3.199-10.017-3.954-15.532-2.266-5.918 2.152-9.899 6.307-11.942 12.464a20.248 20.248 0 00-.824 5.666c.068 4.91.12 9.821.16 14.731-2.13.026-4.258.063-6.383.111A616.76 616.76 0 010 36.151v-4.81c.085-2.109.165-4.228.24-6.356a27.037 27.037 0 014.255-10.613A27.394 27.394 0 019.52 8.789a31.279 31.279 0 01-.824-3.261 229.789 229.789 0 014.92-3.04c.9.812 1.813 1.604 2.74 2.376a24.181 24.181 0 014.6-1.188.244.244 0 00.133-.138c.292-1.139.567-2.281.825-3.427L26.968 0z" fill="#4887D0"/><path opacity=".99" d="M92.553 8.844h3.777v1.824c1.901.06 3.769.541 5.478 1.41 2.463 1.441 3.687 3.643 3.671 6.605-.049 3.597-1.698 6.002-4.947 7.214a14.905 14.905 0 01-4.202.802v1.99h-3.777v-2.046a12.357 12.357 0 01-5.691-1.465c-2.363-1.455-3.533-3.62-3.511-6.495.002-3.386 1.509-5.717 4.521-6.992a14.877 14.877 0 014.628-.995c.052-.616.07-1.234.053-1.852zm-.106 5.196c.106 3.077.142 6.172.106 9.287a7.429 7.429 0 01-3.83-1.355c-1.213-1.183-1.647-2.63-1.303-4.339.313-1.507 1.174-2.511 2.58-3.012a11.83 11.83 0 012.447-.58zm3.883 0a8.56 8.56 0 013.297.968c1.285.853 1.905 2.079 1.862 3.675.016 1.912-.818 3.248-2.5 4.008-.85.35-1.747.564-2.66.636V14.04zM74.468 9.286c2.414-.174 4.612.443 6.596 1.852.52.402.985.877 1.383 1.41-.869.856-1.746 1.704-2.633 2.542-1.617-1.874-3.612-2.528-5.984-1.962-2.174.656-3.478 2.14-3.91 4.45-.35 2.128.19 3.961 1.622 5.5 1.696 1.406 3.593 1.793 5.692 1.16a6.296 6.296 0 002.58-1.851c.902.806 1.78 1.644 2.633 2.515-1.569 1.883-3.554 2.952-5.958 3.206-3.035.373-5.712-.456-8.032-2.488-2.135-2.196-3.048-4.859-2.74-7.987.609-4.238 2.904-6.919 6.89-8.043a17.66 17.66 0 011.86-.304zm33.99.332h13.297v3.427h-9.202v3.87h8.139v3.372h-8.139v4.145h9.522v3.427h-13.617V9.62zm16.861 0c2.89-.009 5.78 0 8.671.028 1.762.107 3.322.733 4.68 1.88 1.565 1.653 2.158 3.634 1.782 5.942-.41 2.176-1.589 3.715-3.537 4.615a8.993 8.993 0 01-2.925.719c-1.525.027-3.05.037-4.575.027v5.03h-4.096V9.62zm4.096 3.483c1.33-.01 2.66 0 3.989.027 2.25.273 3.216 1.572 2.899 3.897-.212.922-.735 1.576-1.569 1.963a5.03 5.03 0 01-1.33.331c-1.329.028-2.659.037-3.989.028V13.1zM160 27.694v.165c-1.437.019-2.873 0-4.308-.055a124.612 124.612 0 01-1.49-3.814c-2.712-.01-5.425 0-8.138.028l-1.543 3.814a53.288 53.288 0 01-4.202-.028 3907.733 3907.733 0 007.766-18.186 76.51 76.51 0 014.123.056A4092.83 4092.83 0 00160 27.694zm-9.893-13.82c.926 2.27 1.847 4.545 2.766 6.827-1.827.037-3.653.037-5.479 0 .912-2.273 1.816-4.548 2.713-6.827z" fill="#1D2A3B"/><path opacity=".99" d="M25.106 14.15c.539-.04 1.08.026 1.596.194a525.046 525.046 0 006.808 5.915c.347.296.567.723.612 1.188.136.542.155 1.108.053 1.658a1.99 1.99 0 01-.266.553c-3.35 4.312-6.72 8.605-10.106 12.88l-2.314-1.963a.143.143 0 01-.079-.08.153.153 0 010-.113c3.012-3.738 6.043-7.46 9.095-11.166.118-.312.056-.58-.186-.802l-4.681-4.09c-.489-.23-.888-.11-1.197.36L15.957 29.82a.065.065 0 01-.106 0l-2.394-2.045 10.346-13.183c.4-.24.844-.39 1.303-.442z" fill="#4887D0"/><path d="M25.372 21.337a.258.258 0 01.16.027c.729.666 1.473 1.31 2.234 1.935a.141.141 0 01.078.08.154.154 0 01.002.114L18.75 34.658a.66.66 0 00.133.747l4.734 4.145c.488.23.887.11 1.197-.359l8.43-11.11a.108.108 0 01.074-.052.103.103 0 01.086.024 64.815 64.815 0 012.34 2.045A914.047 914.047 0 0125.32 43.365a3.85 3.85 0 01-2.766.165 568.65 568.65 0 01-7.101-6.218 3.904 3.904 0 01-.266-2.874l10.186-13.101z" fill="#791F39"/><path opacity=".93" d="M115 35.708h.585c.112.617.475.912 1.091.885.595.025.959-.26 1.09-.857.194-.027.39-.037.585-.028-.036.745-.408 1.197-1.117 1.355a4.43 4.43 0 01-1.33-.056c-.598-.207-.899-.64-.904-1.299z" fill="#1D2A3B"/><path opacity=".94" d="M65.691 37.588c.285-.018.571 0 .852.055a155.395 155.395 0 002.473 4.92c.82-1.65 1.653-3.29 2.5-4.92.27-.072.554-.072.824 0a684.602 684.602 0 00-3.324 6.412c-.652 1.117-1.547 1.42-2.686.912.05-.227.14-.442.266-.636.636.299 1.177.17 1.622-.386a8.87 8.87 0 01.346-.58 290.364 290.364 0 01-2.873-5.777zm7.341 0h.798a31.652 31.652 0 00.08 3.095c.385.796 1.014 1.164 1.888 1.106a5.053 5.053 0 002.074-.498 64.59 64.59 0 00.053-3.703h.798v7.517h-.798v-3.04a5.526 5.526 0 01-3.404.304c-.806-.265-1.293-.827-1.463-1.686a91.245 91.245 0 01-.026-3.095z" fill="#1D2A3B"/><path opacity=".97" d="M81.064 37.588h5v.774h-4.149v2.542h3.67v.774h-3.67v2.709h4.308v.718h-5.159v-7.517z" fill="#1D2A3B"/><path opacity=".94" d="M87.82 37.588h5.319v.718h-4.522v2.377c.851-.009 1.702 0 2.553.028 1.789.034 2.56.964 2.314 2.791-.202.727-.655 1.197-1.356 1.41a4.81 4.81 0 01-.904.166c-1.135.027-2.27.037-3.405.027v-7.517zm.797 3.814c.922-.01 1.844 0 2.766.028.865.078 1.326.567 1.383 1.464-.086.836-.53 1.325-1.33 1.465a71.59 71.59 0 01-2.819.028v-2.985z" fill="#1D2A3B"/><path opacity=".93" d="M95.266 37.588h.798v3.316h4.415v-3.316h.798v7.517h-.798v-3.427h-4.415v3.428h-.798v-7.518z" fill="#1D2A3B"/><path opacity=".94" d="M103.67 37.588h.798v2.653c.851-.01 1.702 0 2.553.028 1.703.134 2.456 1.083 2.261 2.846-.109.846-.544 1.427-1.303 1.742a3.996 3.996 0 01-1.011.22 98.25 98.25 0 01-3.298.029v-7.518zm.798 3.372c.851-.01 1.702 0 2.553.027 1.222.226 1.692.972 1.41 2.24-.206.655-.64 1.033-1.303 1.132-.887.028-1.773.037-2.66.028V40.96z" fill="#1D2A3B"/><path opacity=".93" d="M110.479 37.588h.797v7.517h-.797v-7.517z" fill="#1D2A3B"/><path opacity=".94" d="M113.67 37.588h.798c-.009 2.027 0 4.054.027 6.08a368.642 368.642 0 014.495-6.052 5 5 0 01.744-.028v7.518h-.798c.009-2.027.001-4.054-.026-6.08a565.686 565.686 0 00-4.468 6.024 2.839 2.839 0 01-.772.056v-7.518z" fill="#1D2A3B"/><path opacity=".96" d="M124.734 37.588h.798v6.799h4.308v-6.8h.798v6.8h1.117v2.432h-.745v-1.714h-6.276v-7.517z" fill="#1D2A3B"/><path opacity=".97" d="M133.191 37.588h5v.774h-4.149v2.542h3.671v.774h-3.671v2.709h4.309v.718h-5.16v-7.517z" fill="#1D2A3B"/><path opacity=".95" d="M139.947 37.588h.798v3.316h4.468v-3.316h.798v7.517h-.798v-3.427h-4.468v3.428h-.798v-7.518z" fill="#1D2A3B"/><path opacity=".93" d="M147.234 37.588h5.851v.774h-2.5v6.743h-.798v-6.743h-2.553v-.774z" fill="#1D2A3B"/><path opacity=".95" d="M160 39.633v1.106c-.325 1.157-1.07 1.81-2.234 1.962-.869.028-1.737.037-2.606.028v2.377h-.798v-7.518c1.028-.01 2.057 0 3.085.028a2.36 2.36 0 011.643.507c.47.372.794.909.91 1.51zm-4.84-1.271c.833-.01 1.667 0 2.5.027 1.148.24 1.653.968 1.516 2.184-.246.898-.822 1.367-1.729 1.41-.762.027-1.525.036-2.287.027v-3.648z" fill="#1D2A3B"/><path opacity=".99" d="M27.766 46.764h.692c.017 2.636.053 5.271.106 7.904h-3.298a824.847 824.847 0 00-.053-7.85c.86.02 1.711 0 2.553-.054z" fill="#4887D0"/><path opacity=".98" d="M19.415 46.874h3.245l.053 7.85a53.503 53.503 0 00-3.245.055 1277.4 1277.4 0 01-.053-7.905zm-5.958.056h3.245l.053 7.849c-1.082.013-2.163.031-3.245.055-.024-2.635-.042-5.27-.053-7.904z" fill="#4887D0"/><path opacity=".99" d="M.532 55h-.32a917.96 917.96 0 00-.106-7.905c3.617-.03 7.234-.067 10.851-.11.05 2.616.085 5.233.107 7.85-3.52.048-7.03.103-10.532.165z" fill="#4887D0"/></g></g><defs><clipPath id="clip0_526_5484"><path fill="#fff" d="M0 0h160v55H0z"/></clipPath></defs></svg>
